packages/icons/src/email-inline.svg

<svg viewBox="0 0 10 9" xmlns="http://www.w3.org/2000/svg"><path clip-rule="evenodd" d="m.909091 0h8.181819c.50208 0 .90909.414551.90909.925926v6.481484c0 .51137-.40701.92592-.90909.92592h-8.181819c-.502077 0-.909091-.41455-.909091-.92592v-6.481484c0-.511375.407014-.925926.909091-.925926zm.00005 3.06397v4.34344h8.181819v-4.34329l-4.09096 2.08336zm0-1.03524 4.090879 2.08353 4.09094-2.08335v-1.102984h-8.181819z" fill="#4f5162" fill-rule="evenodd"/></svg>

<svg viewBox="0 0 10 9" xmlns="http://www.w3.org/2000/svg">
<path fill-rule="evenodd" clip-rule="evenodd" d="M0.909091 0H9.09091C9.59299 0 10 0.414551 10 0.925926V7.40741C10 7.91878 9.59299 8.33333 9.09091 8.33333H0.909091C0.407014 8.33333 0 7.91878 0 7.40741V0.925926C0 0.414551 0.407014 0 0.909091 0ZM0.909141 3.06397V7.40741H9.09096V3.06412L5 5.14748L0.909141 3.06397ZM0.909141 2.02873L5.00002 4.11226L9.09096 2.02891V0.925926H0.909141V2.02873Z" fill="#4F5162"/>
</svg>
